X: 73
T:Diviels Dream,The. GS.073
T:Devil's Dream,The. GS.073
T:Devil Among the Tailors. GS.073
M:4/4
L:1/8
Q:200
S:George Spencer m/s, Leeds,1831
R:Reel
O:England
A:Leeds
N:Can any conclusions be drawn from the phonetic spelling of
N:'Devil'Northumbrian accent
H:1831
Z:vmp.Cherri Graebe
K:A major
e2 | eaga eaga | eaga fedc | dfBf dfBf | dfBf fedc | eaga eaga | eaga fe
dc |
 agfe dcBA | E2G2A2 :||: e2 | ceAe ceAe | ceAa fedc | dfBf dfBf | dfBf g
fed |
 ceAe ceAe | ceAe fedc | agfe dcBA | E2G2A2 :||
